X: 107
T: No_66_Song_of_the_Healing_Spirits.krn
N: Derived from No_66_Song_of_the_Healing_Spirits.krn
%%abc-version 2.0
%%abcx-abcm2ps-target-version 5.9.1 (29 Sep 2008)
%%abc-creator hum2abc beta
%%abcx-conversion-date 2019/03/15 08:35:45
%%humdrum-veritas 1823512933
%%humdrum-veritas-data 2600618408
%%linebreak <none>
%%barnumbers 0
L: 1/16
M: 2/4
K: C clef=bass
[K:clef=bass][M:2/4]z4z2 z D | 
D3_E D2 z C ]|:  
C4z2 z C ||  
[M:3/4]C4(C3A,) A,2 z C | 
C3DC4z2 z A, ||  
[M:2/4]A,2G,2 G,2 z _B, | 
A,2G,2G,4 | 
G,8- | 
G,4z2 z C | 
C3G, G,2 z G, | 
G,2 z A,G,4 | 
(G,3E,) E,2 z A, | 
G,3A,G,4- | 
G,4z2 z E, | 
E,2D,2 C,2 z E, | 
D,4C,4 | 
C,8- | 
C,4z2 z D | 
(D3C) C2 z C :|]  
C,8 | 
C,4z4 |]  



